actions/32/folder-sync.svg

<svg xmlns="http://www.w3.org/2000/svg" viewBox="0 0 32 32">
  <defs
     id="defs3051">
<style type="text/css" id="current-color-scheme">.ColorScheme-Text {color:#fcfcfc;}</style>
  </defs>
  <path
     style="fill:currentColor;fill-opacity:1;stroke:none" 
     d="m 4,8 c 0,4 0,12 0,16 0,4 4,4 4,4 h 8 v -1 l -8,0 c 0,0 -3,0 -3,-3 0,-3 0,-6 0,-8 0,-2 2,-2 2,-2 l 3,0 3,-3 h 11 c 0,0 3,0 3,3 0,3 0,2 0,2 h 1 c 0,0 0,-1 0,-5 C 28,7 24,7 24,7 H 18 L 15,4 H 8 C 8,4 4,4 4,8 Z m 18,8 c -3.313708,0 -6,2.686292 -6,6 0.0021,1.070742 0.290764,2.121406 0.835938,3.042969 l 0.732421,-0.732422 C 17.195737,23.597322 17.000764,22.804697 17,22 c 0,-2.761424 2.238576,-5 5,-5 0.804198,0.0017 1.596125,0.197317 2.308594,0.570312 l 0.730468,-0.734374 C 24.118641,16.291435 23.069416,16.002831 22,16 Z m 5.160156,2.957031 -0.728515,0.732422 C 26.804263,20.402678 26.999236,21.195303 27,22 c 0,2.761424 -2.238576,5 -5,5 -0.804198,-0.0017 -1.596125,-0.197317 -2.308594,-0.570312 l -0.734375,0.730468 C 19.878207,27.706698 20.928896,27.996683 22,28 c 3.313708,0 6,-2.686292 6,-6 -0.0021,-1.070742 -0.290764,-2.121406 -0.835938,-3.042969 z"
     id="path85" 
     class="ColorScheme-Text"
     />
</svg>

<svg xmlns="http://www.w3.org/2000/svg" viewBox="0 0 32 32">
  <defs
     id="defs3051">
    <style
       type="text/css"
       id="current-color-scheme">
      .ColorScheme-Text {
        color:#d8d8d8;
      }
      </style>
  </defs>
  <path
     style="fill:currentColor;fill-opacity:1;stroke:none" 
     d="M 4 4 L 4 28 L 16 28 L 16 27 L 5 27 L 5 14 L 10 14 L 13 11 L 27 11 L 27 16 L 28 16 L 28 7 L 18 7 L 15 4 L 4 4 z M 22 16 A 6 6 0 0 0 16 22 A 6 6 0 0 0 16.835938 25.042969 L 17.568359 24.310547 A 5 5 0 0 1 17 22 A 5 5 0 0 1 22 17 A 5 5 0 0 1 24.308594 17.570312 L 25.039062 16.835938 A 6 6 0 0 0 22 16 z M 27.160156 18.957031 L 26.431641 19.689453 A 5 5 0 0 1 27 22 A 5 5 0 0 1 22 27 A 5 5 0 0 1 19.691406 26.429688 L 18.957031 27.160156 A 6 6 0 0 0 22 28 A 6 6 0 0 0 28 22 A 6 6 0 0 0 27.164062 18.957031 L 27.160156 18.957031 z "
     id="path85" 
     class="ColorScheme-Text"
     />
</svg>
